images/img-services-4.svg

<?xml version="1.0" encoding="UTF-8" standalone="no"?>
<svg width="145px" height="141px" viewBox="0 0 145 141" version="1.1" xmlns="http://www.w3.org/2000/svg" xmlns:xlink="http://www.w3.org/1999/xlink">
    <!-- Generator: Sketch 50.2 (55047) - http://www.bohemiancoding.com/sketch -->
    <title>017-multitasking</title>
    <desc>Created with Sketch.</desc>
    <defs></defs>
    <g id="Page-1" stroke="none" stroke-width="1" fill="none" fill-rule="evenodd">
        <g id="Landing-Page-MC" transform="translate(-1137.000000, -909.000000)" fill-rule="nonzero">
            <g id="Group-8" transform="translate(1090.000000, 864.000000)">
                <g id="017-multitasking" transform="translate(47.000000, 45.000000)">
                    <path d="M21,55 L1.24843088,55 C0.0328254979,55 -0.463392923,56.5942924 0.529620581,57.3100912 L11.1996141,65 L18.1994367,60.9561636 L21,55 Z" id="Shape" fill="#FFCEBF"></path>
                    <path d="M124,55 L143.751569,55 C144.967175,55 145.463393,56.5942924 144.470379,57.3100912 L133.800386,65 L127.513607,60.9561636 L124,55 Z" id="Shape" fill="#FFCEBF"></path>
                    <path d="M133,65.6373876 L120.431079,78.4031263 C115.953401,82.9509208 109.599113,84.443212 103.893637,82.8711349 C101.115091,82.1087366 98.4907469,80.6194004 96.311552,78.4031263 L93.7279405,75.7790578 L93.7279405,113.355246 L71.9636316,116 L50.2720595,113.355246 L50.2720595,75.7790578 L47.688448,78.4031263 C41.0286655,85.1671949 30.2287036,85.1671949 23.5689211,78.4031263 L11,65.6373876 L20.889297,55.5932334 L31.4594105,66.3288651 C33.7608032,68.6692505 37.4936564,68.6692505 39.7950491,66.3288651 L50.2720595,55.6907495 C53.0244205,52.4017987 56.358676,49.8220557 60.0333397,48.0608565 C60.0769818,48.0401713 60.1177144,48.0194861 60.1613565,48.0017559 L71.9650863,47 L83.841553,48.0017559 C85.0431651,48.5691221 86.2069541,49.2251392 87.327101,49.9668522 C89.6837737,51.5152891 91.8426023,53.439015 93.7279405,55.6907495 L104.204951,66.3288651 C106.506344,68.6692505 110.239197,68.6692505 112.54059,66.3288651 L123.110703,55.5932334 L127.777497,60.3331049 L133,65.6373876 Z" id="Shape" fill="#82AEE3"></path>
                    <path d="M86,22.8270103 L86,30.8690009 C86,38.1217044 79.9558452,44 72.4985027,44 C71.4231145,44 70.3788709,43.8785488 69.3771517,43.6467139 C63.4294255,42.2778397 59,37.0758263 59,30.8690009 L59,22.8270103 L72.4625665,21 L86,22.8270103 Z" id="Shape" fill="#FFCEBF"></path>
                    <path d="M86,22.8270103 L86,30.8690009 C86,38.1217044 79.8187108,44 72.1921705,44 C71.0923831,44 70.0244469,43.8785488 69,43.6467139 C75.0854291,42.2778397 79.615659,37.0758263 79.615659,30.8690009 L79.615659,22.8270103 L82.7070693,21 L86,22.8270103 Z" id="Shape" fill="#FFB09E"></path>
                    <polygon id="Shape" fill="#5A5A5A" points="51 113 95 113 95 140 51 140"></polygon>
                    <polygon id="Shape" fill="#444444" points="87 113 94 113 94 140 87 140"></polygon>
                    <path d="M94,75.3746806 L94,113 L87,113 L87,72.5149078 C87,71.1680184 88.7512727,70.4933902 89.7751818,71.4458587 L94,75.3746806 Z" id="Shape" fill="#528FD8"></path>
                    <path d="M134,64.2714944 L121.045182,76.9583223 C116.430028,81.4780047 109.880648,82.9610713 104,81.398712 C106.863854,80.6410264 109.568772,79.1608965 111.817873,76.9583223 L128.617153,59 L134,64.2714944 Z" id="Shape" fill="#528FD8"></path>
                    <path d="M85,47.5849471 L75.1747143,65.2983868 L74.0235164,67.3743852 C73.5602654,68.2097282 72.3689642,68.2082392 71.9077774,67.371705 L70.7515665,65.2745624 L69.6310358,63.2405544 L61,47.5849471 C64.063767,46.1465491 67.3604865,45.2620684 70.7515665,45.0089341 L72.9985256,45.334435 L75.1747143,45 C76.6019167,45.1042317 78.0114265,45.3186513 79.3943973,45.6402807 C81.3258386,46.0899662 83.2012532,46.7421591 84.9970512,47.5849471 L85,47.5849471 Z" id="Shape" fill="#DDEAFB"></path>
                    <path d="M84,47.0006625 L73.2870299,67.3565075 C72.8346124,68.2157723 71.6721988,68.2142407 71.2220837,67.3534442 L69,63.1042956 L78.5289716,45 C80.4140445,45.4625632 82.2444359,46.1334331 83.997122,47.0003562 L84,47.0003562 L84,47.0006625 Z" id="Shape" fill="#CBE2FF"></path>
                    <path d="M28,31.4985755 C28,37.2991453 23.299783,42 17.5,42 C16.1583017,42 14.8764243,41.7492877 13.6970971,41.2877493 C9.77740098,39.7663818 7,35.957265 7,31.4985755 C7,27.042735 9.77740098,23.2336182 13.6970971,21.7122507 C14.8764243,21.2507123 16.1583017,21 17.5,21 C23.299783,21 28,25.7008547 28,31.4985755 Z" id="Shape" fill="#FFD15B"></path>
                    <path d="M28,31.4985755 C28,37.2991453 23.3993228,42 17.7223661,42 C16.4090819,42 15.1543517,41.7492877 14,41.2877493 C17.8366859,39.7663818 20.5552679,35.957265 20.5552679,31.4985755 C20.5552679,27.042735 17.8366859,23.2336182 14,21.7122507 C15.1543517,21.2507123 16.4090819,21 17.7223661,21 C23.3993228,21 28,25.7008547 28,31.4985755 Z" id="Shape" fill="#FFC344"></path>
                    <path d="M136,31.4985755 C136,37.2991453 131.299145,42 125.501425,42 C124.196581,42 122.948718,41.7635328 121.797721,41.3276353 C117.826211,39.8319088 115,35.994302 115,31.4985755 C115,27.005698 117.826211,23.1680912 121.797721,21.6723647 C122.948718,21.2364672 124.196581,21 125.501425,21 C131.299145,21 136,25.7008547 136,31.4985755 Z" id="Shape" fill="#FFD15B"></path>
                    <path d="M136,31.4985755 C136,37.2991453 131.366098,42 125.650953,42 C124.364694,42 123.134604,41.7635328 122,41.3276353 C125.914945,39.8290598 128.698094,35.994302 128.698094,31.4985755 C128.698094,27.005698 125.914945,23.1709402 122,21.6723647 C123.134604,21.2364672 124.364694,21 125.650953,21 C131.366098,21 136,25.7008547 136,31.4985755 Z" id="Shape" fill="#FFC344"></path>
                    <path d="M111,7.00146597 C111,10.8657592 107.865759,14 104.001466,14 C102.966492,14 101.987225,13.7771728 101.104712,13.3725654 C98.6829319,12.273089 97,9.83371728 97,7.00146597 C97,4.16921466 98.6829319,1.72691099 101.104712,0.627434555 C101.987225,0.222827225 102.966492,0 104.001466,0 C107.865759,0 111,3.13424084 111,7.00146597 Z" id="Shape" fill="#FFD15B"></path>
                    <path d="M111,7.00146597 C111,10.8657592 107.832593,14 103.927407,14 C102.881481,14 101.891852,13.7771728 101,13.3725654 C103.447407,12.273089 105.148148,9.83371728 105.148148,7.00146597 C105.148148,4.16921466 103.447407,1.72691099 101,0.627434555 C101.891852,0.222827225 102.881481,0 103.927407,0 C107.832593,0 111,3.13424084 111,7.00146597 Z" id="Shape" fill="#FFC344"></path>
                    <path d="M48,7.00146597 C48,10.8657592 44.8664154,14 41,14 C39.9652429,14 38.9803183,13.7742408 38.0979899,13.3696335 C35.6796482,12.2672251 34,9.83078534 34,7.00146597 C34,4.16921466 35.6796482,1.73277487 38.0979899,0.630366492 C38.9803183,0.225759162 39.9652429,0 41,0 C44.8664154,0 48,3.13424084 48,7.00146597 Z" id="Shape" fill="#FFD15B"></path>
                    <path d="M48,7.00146597 C48,10.8657592 44.8354056,14 40.9307282,14 C39.8857312,14 38.8910598,13.7742408 38,13.3696335 C40.4393132,12.2672251 42.1355832,9.83078534 42.1355832,7.00146597 C42.1355832,4.1721466 40.4393132,1.73277487 38,0.630366492 C38.8910598,0.225759162 39.8857312,0 40.9307282,0 C44.8354056,0 48,3.13424084 48,7.00146597 Z" id="Shape" fill="#FFC344"></path>
                    <path d="M74,65.0237389 L74,113 L70,113 L70,65 L71.0456,67.0896142 C71.4626667,67.9231454 72.54,67.9246291 72.9589333,67.0922849 L74,65.0237389 Z" id="Shape" fill="#0473CE"></path>
                    <path d="M74,54 L74,65.436414 L72.9589333,67.4063483 C72.54,68.199013 71.4626667,68.1976001 71.0456,67.403805 L70,65.4138068 L70,61.567758 L74,54 Z" id="Shape" fill="#FD4755"></path>
                    <path d="M74,45.0730994 L74,53.1695906 L70,61 L70,45.0818713 C70.624,45.0263158 71.2533333,45 71.8853333,45 L72.1786667,45 C72.7893333,45 73.3946667,45.0233918 74,45.0730994 Z" id="Shape" fill="#FE646F"></path>
                    <path d="M72,141 C70.8954667,141 70,139.969085 70,138.69748 L70,123.30252 C70,122.030915 70.8954667,121 72,121 C73.1045333,121 74,122.030915 74,123.30252 L74,138.69748 C74,139.969085 73.1048,141 72,141 Z" id="Shape" fill="#444444"></path>
                    <path d="M19.8578314,34 L16.1421686,34 C14.9591203,34 14,33.1045333 14,32 C14,30.8954667 14.9591203,30 16.1421686,30 L19.8578314,30 C21.0408797,30 22,30.8954667 22,32 C22,33.1045333 21.0411653,34 19.8578314,34 Z" id="Shape" fill="#FFF9DF"></path>
                    <path d="M127.857831,34 L124.142169,34 C122.95912,34 122,33.1045333 122,32 C122,30.8954667 122.95912,30 124.142169,30 L127.857831,30 C129.04088,30 130,30.8954667 130,32 C130,33.1045333 129.04088,34 127.857831,34 Z" id="Shape" fill="#FFF9DF"></path>
                    <path d="M72,35 C70.8954552,35 70,34.1001495 70,32.990183 L70,30.009817 C70,28.8998505 70.8954552,28 72,28 C73.1045448,28 74,28.8998505 74,30.009817 L74,32.990183 C74,34.1001495 73.1045448,35 72,35 Z" id="Shape" fill="#FFB09E"></path>
                    <path d="M110.794774,141 L36.2052255,141 C34.987353,141 34,140.104533 34,139 C34,137.895467 34.987353,137 36.2052255,137 L110.794774,137 C112.012647,137 113,137.895467 113,139 C113,140.104533 112.012647,141 110.794774,141 Z" id="Shape" fill="#DDEAFB"></path>
                    <path d="M86,22.0856245 L86,24 L59,24 L59,22.0856245 C59,17.0671759 63.0152618,13 67.9669587,13 L77.0303461,13 C81.9847382,13 86,17.0671759 86,22.0856245 Z" id="Shape" fill="#87523E"></path>
                    <path d="M85,22.0856245 L85,24 L78.8444427,24 L78.8444427,22.0856245 C78.8444427,17.0671759 74.8852317,13 70,13 L76.1555573,13 C81.040789,13 85,17.0671759 85,22.0856245 Z" id="Shape" fill="#7C4B37"></path>
                </g>
            </g>
        </g>
    </g>
</svg>

<svg xmlns="http://www.w3.org/2000/svg" viewBox="0 0 145 141"><g fill="none" fill-rule="nonzero" stroke="none" stroke-width="1" transform="translate(-1137 -909) translate(1090 864) translate(47 45)"><path fill="#FFCEBF" d="M21 55H1.248C.033 55-.463 56.594.53 57.31L11.2 65l7-4.044L21 55zM124 55h19.752c1.215 0 1.711 1.594.718 2.31L133.8 65l-6.286-4.044L124 55z"/><path fill="#82AEE3" d="m133 65.637-12.569 12.766a16.869 16.869 0 0 1-24.12 0l-2.583-2.624v37.576L71.964 116l-21.692-2.645V75.78l-2.584 2.624a16.87 16.87 0 0 1-24.12 0L11 65.637l9.89-10.044L31.46 66.33a5.826 5.826 0 0 0 8.335 0L50.272 55.69c2.752-3.29 6.087-5.869 9.761-7.63.044-.02.085-.042.128-.06L71.965 47l11.877 1.002a27.85 27.85 0 0 1 3.485 1.965 29.468 29.468 0 0 1 6.4 5.724l10.478 10.638a5.826 5.826 0 0 0 8.336 0l10.57-10.736 4.666 4.74L133 65.637z"/><path fill="#FFCEBF" d="M86 22.827v8.042C86 38.122 79.956 44 72.499 44c-1.076 0-2.12-.121-3.122-.353C63.43 42.277 59 37.076 59 30.869v-8.042L72.463 21 86 22.827z"/><path fill="#FFB09E" d="M86 22.827v8.042C86 38.122 79.819 44 72.192 44c-1.1 0-2.168-.121-3.192-.353 6.085-1.37 10.616-6.571 10.616-12.778v-8.042L82.707 21 86 22.827z"/><path fill="#5A5A5A" d="M51 113 95 113 95 140 51 140z"/><path fill="#444" d="M87 113 94 113 94 140 87 140z"/><path fill="#528FD8" d="M94 75.375V113h-7V72.515c0-1.347 1.751-2.022 2.775-1.07L94 75.376zM134 64.271l-12.955 12.687c-4.615 4.52-11.164 6.003-17.045 4.44a17.562 17.562 0 0 0 7.818-4.44L128.618 59 134 64.271z"/><path fill="#DDEAFB" d="m85 47.585-9.825 17.713-1.151 2.076a1.206 1.206 0 0 1-2.116-.002l-1.156-2.097-1.121-2.034L61 47.585a27.81 27.81 0 0 1 9.752-2.576l2.247.325L75.175 45c1.427.104 2.836.319 4.22.64a28.27 28.27 0 0 1 5.602 1.945H85z"/><path fill="#CBE2FF" d="M84 47 73.287 67.358a1.149 1.149 0 0 1-2.065-.004L69 63.104 78.529 45a26.655 26.655 0 0 1 5.468 2H84z"/><path fill="#FFD15B" d="M28 31.499C28 37.299 23.3 42 17.5 42A10.499 10.499 0 0 1 7 31.499 10.498 10.498 0 0 1 17.5 21C23.3 21 28 25.7 28 31.499z"/><path fill="#FFC344" d="M28 31.499C28 37.299 23.4 42 17.722 42A9.998 9.998 0 0 1 14 41.288c3.837-1.522 6.555-5.33 6.555-9.79 0-4.455-2.718-8.264-6.555-9.786A9.998 9.998 0 0 1 17.722 21C23.4 21 28 25.7 28 31.499z"/><path fill="#FFD15B" d="M136 31.499c0 5.8-4.7 10.501-10.499 10.501-1.304 0-2.552-.236-3.703-.672a10.504 10.504 0 0 1-6.798-9.83c0-4.492 2.826-8.33 6.798-9.826A10.433 10.433 0 0 1 125.5 21C131.3 21 136 25.7 136 31.499z"/><path fill="#FFC344" d="M136 31.499c0 5.8-4.634 10.501-10.349 10.501-1.286 0-2.516-.236-3.651-.672 3.915-1.499 6.698-5.334 6.698-9.83 0-4.492-2.783-8.327-6.698-9.826a10.154 10.154 0 0 1 3.651-.672C131.366 21 136 25.7 136 31.499z"/><path fill="#FFD15B" d="M111 7.001a7 7 0 0 1-9.895 6.372A6.998 6.998 0 0 1 104.002 0 7 7 0 0 1 111 7.001z"/><path fill="#FFC344" d="M111 7.001c0 3.865-3.167 6.999-7.073 6.999a7.06 7.06 0 0 1-2.927-.627c2.447-1.1 4.148-3.54 4.148-6.372s-1.7-5.274-4.148-6.374A7.06 7.06 0 0 1 103.927 0C107.833 0 111 3.134 111 7.001z"/><path fill="#FFD15B" d="M48 7.001a7 7 0 0 1-9.902 6.369A6.996 6.996 0 0 1 34 7 6.997 6.997 0 0 1 41 0a7 7 0 0 1 7 7.001z"/><path fill="#FFC344" d="M48 7.001C48 10.866 44.835 14 40.93 14a7.078 7.078 0 0 1-2.93-.63c2.44-1.103 4.136-3.54 4.136-6.369 0-2.829-1.697-5.268-4.136-6.37A7.078 7.078 0 0 1 40.93 0C44.836 0 48 3.134 48 7.001z"/><path fill="#0473CE" d="M74 65.024V113h-4V65l1.046 2.09c.417.833 1.494.835 1.913.002L74 65.024z"/><path fill="#FD4755" d="M74 54v11.436l-1.041 1.97a1.067 1.067 0 0 1-1.913-.002L70 65.414v-3.846L74 54z"/><path fill="#FE646F" d="M74 45.073v8.097L70 61V45.082A21.265 21.265 0 0 1 71.885 45h.294c.61 0 1.216.023 1.821.073z"/><path fill="#444" d="M72 141c-1.105 0-2-1.03-2-2.303v-15.394c0-1.272.895-2.303 2-2.303s2 1.03 2 2.303v15.394c0 1.272-.895 2.303-2 2.303z"/><path fill="#FFF9DF" d="M19.858 34h-3.716C14.96 34 14 33.105 14 32s.96-2 2.142-2h3.716C21.04 30 22 30.895 22 32s-.959 2-2.142 2zM127.858 34h-3.716c-1.183 0-2.142-.895-2.142-2s.96-2 2.142-2h3.716c1.183 0 2.142.895 2.142 2s-.96 2-2.142 2z"/><path fill="#FFB09E" d="M72 35c-1.105 0-2-.9-2-2.01v-2.98c0-1.11.895-2.01 2-2.01s2 .9 2 2.01v2.98c0 1.11-.895 2.01-2 2.01z"/><path fill="#DDEAFB" d="M110.795 141h-74.59c-1.218 0-2.205-.895-2.205-2s.987-2 2.205-2h74.59c1.218 0 2.205.895 2.205 2s-.987 2-2.205 2z"/><path fill="#87523E" d="M86 22.086V24H59v-1.914C59 17.067 63.015 13 67.967 13h9.063c4.955 0 8.97 4.067 8.97 9.086z"/><path fill="#7C4B37" d="M85 22.086V24h-6.156v-1.914C78.844 17.067 74.885 13 70 13h6.156C81.04 13 85 17.067 85 22.086z"/></g></svg>
